app/dist/images/icons/blog-like.svg

<svg width="17" height="15" viewBox="0 0 17 15" fill="none" xmlns="http://www.w3.org/2000/svg">
<path d="M8.5 15C8.25798 15 8.02465 14.913 7.84281 14.7551C7.15605 14.1595 6.49393 13.5998 5.90977 13.1062L5.90678 13.1036C4.1941 11.6561 2.71513 10.406 1.6861 9.17466C0.535789 7.79804 0 6.49281 0 5.06693C0 3.68157 0.478981 2.40348 1.34862 1.46794C2.22863 0.521344 3.43613 0 4.74908 0C5.73039 0 6.62908 0.307687 7.42012 0.914443C7.81934 1.22071 8.1812 1.59555 8.5 2.03277C8.81893 1.59555 9.18066 1.22071 9.58001 0.914443C10.371 0.307687 11.2697 0 12.251 0C13.5639 0 14.7715 0.521344 15.6515 1.46794C16.5211 2.40348 17 3.68157 17 5.06693C17 6.49281 16.4643 7.79804 15.314 9.17453C14.285 10.406 12.8062 11.656 11.0937 13.1033C10.5085 13.5978 9.84538 14.1584 9.15706 14.7553C8.97535 14.913 8.74189 15 8.5 15ZM4.74908 0.987634C3.71758 0.987634 2.77 1.39591 2.08064 2.13734C1.38104 2.88997 0.995705 3.93034 0.995705 5.06693C0.995705 6.26616 1.44511 7.3387 2.45275 8.54449C3.42667 9.71002 4.87528 10.9343 6.55256 12.352L6.55567 12.3546C7.14204 12.8502 7.80676 13.412 8.49857 14.012C9.19454 13.4109 9.86029 12.8481 10.4478 12.3517C12.125 10.9341 13.5735 9.71002 14.5474 8.54449C15.5549 7.3387 16.0043 6.26616 16.0043 5.06693C16.0043 3.93034 15.619 2.88997 14.9194 2.13734C14.2301 1.39591 13.2824 0.987634 12.251 0.987634C11.4954 0.987634 10.8017 1.22586 10.1891 1.69562C9.64317 2.11445 9.26289 2.6439 9.03994 3.01436C8.92529 3.20486 8.72347 3.31857 8.5 3.31857C8.27653 3.31857 8.07471 3.20486 7.96006 3.01436C7.73724 2.6439 7.35696 2.11445 6.81092 1.69562C6.19835 1.22586 5.50459 0.987634 4.74908 0.987634Z" fill="#828282"/>
</svg>

<svg width="17" height="15" fill="none" xmlns="http://www.w3.org/2000/svg"><path d="M8.5 15c-.242 0-.475-.087-.657-.245a194.959 194.959 0 00-1.933-1.649l-.003-.002c-1.713-1.448-3.192-2.698-4.22-3.93C.535 7.799 0 6.494 0 5.068c0-1.385.479-2.664 1.349-3.6A4.589 4.589 0 014.749 0C5.73 0 6.63.308 7.42.914c.4.307.761.682 1.08 1.119A5.44 5.44 0 019.58.914 4.299 4.299 0 0112.251 0a4.59 4.59 0 013.4 1.468C16.521 2.403 17 3.682 17 5.067c0 1.426-.536 2.731-1.686 4.108-1.029 1.231-2.508 2.481-4.22 3.928a196.3 196.3 0 00-1.937 1.652A1.003 1.003 0 018.5 15zM4.75.988a3.6 3.6 0 00-2.67 1.15C1.382 2.89.997 3.93.997 5.066c0 1.2.45 2.272 1.457 3.477.974 1.166 2.422 2.39 4.1 3.808l.003.003c.586.495 1.25 1.057 1.943 1.657.696-.601 1.361-1.164 1.949-1.66 1.677-1.418 3.125-2.642 4.1-3.808 1.007-1.205 1.456-2.278 1.456-3.477 0-1.137-.385-2.177-1.085-2.93a3.6 3.6 0 00-2.668-1.15 3.32 3.32 0 00-2.062.709c-.546.418-.926.948-1.15 1.318a.625.625 0 01-.539.305.625.625 0 01-.54-.305c-.223-.37-.603-.9-1.15-1.318A3.32 3.32 0 004.75.988z" fill="#828282"/></svg>
